apps/trade/public/tokens/stx.svg

<svg width="24" height="24" viewBox="0 0 24 25" fill="none" xmlns="http://www.w3.org/2000/svg">
<rect y="0.5" width="24" height="24" rx="12" fill="#5546FF"/>
<path d="M16.8962 18.8228L14.313 14.7677H18.0226V13.2358H5.85742V14.7677H9.56706L6.98383 18.8228H8.90623L11.94 14.0619L14.9738 18.8228H16.8962ZM18.0226 11.749V10.217H14.3881L16.9413 6.20703H15.0039L11.94 11.0431L8.8762 6.20703H6.93877L9.49197 10.217H5.85742V11.764L18.0226 11.749Z" fill="white"/>
</svg>

<svg width="24" height="24" viewBox="0 0 24 25" fill="none" xmlns="http://www.w3.org/2000/svg">
    <rect y=".5" width="24" height="24" rx="12" fill="#5546FF"/>
    <path d="m16.896 18.823-2.583-4.055h3.71v-1.532H5.857v1.532h3.71l-2.583 4.055h1.922l3.034-4.761 3.034 4.76h1.922Zm1.127-7.074v-1.532h-3.635l2.553-4.01h-1.937l-3.064 4.836-3.064-4.836H6.94l2.553 4.01H5.857v1.547l12.166-.015Z" fill="#fff"/>
</svg>
